!!!OTL: ES WAREN DREI GESELLEN
!!!ARE: Europa, Mitteleuropa, Deutschland, Pommern
!!!SCT: Z0175
!!!YEM: Copyright 1995, estate of Helmut Schaffrath.
**kern
*ICvox
*Ivox
*M4/4
*k[b-e-]
*B-:
{4f
=1
4b-
8a
8g
4f
4b-
=2
8dd
8cc
4b-
4r}
{4f
=3
4b-
8a
8g
4f
4b-
=4
8dd
8cc
4b-
4r}
{8.ff
16ee-
=5
8dd
8dd
8dd
8dd
4dd
4ff
=6
8ff
8ee-
8ee-
8dd
4.cc}
{8cc
=7
8cc
8cc
8cc
8cc
4ff
8ff
8ee-
=8
8dd
8dd
8cc
8cc
4b-}
==
!!!AGN: Romanze, Tod
!!!ONB: ESAC (Essen Associative Code) Database: ZUCCAL
!!!AMT: simple quadruple
!!!AIN: vox
!!!EED: Helmut Schaffrath
!!!EEV: 1.0
*-
